X: 1492
T: Going Courting
B: australian traditional tunes wiki
M:3/4
L:1/8
R: Polka Mazurka
Q: 1/4=100
K:G
V:1 
B>A || "G" G2D2 B>A | G2D2 B>A | G>F G>F G>E | "D7" F4 c>B |
 A2 D2 c>B |A2 D2 c>B | A>G A>G A>c | "G" B4 B>c | 
"G" d>c d>c B>d | "C" c4 A>B | "D7"c>B c>B A>c | "G" B4 B>A |
 G2D2 d>c |"C" B2 E2 E>c | "D7" A3 B A2 | "G" G4 ||
% abcbook-tune_id 6342d53ab2e80f5155a62f8a


% abcbook-boost 0
% abcbook-tablature 
% abcbook-transpose 
% abcbook-lastupdated 1665324367688
% abcbook-soundfonts 
% abcbook-repeats 1
% NFF Book 2010

